!!!COM: Bach, Johann Sebastian
!!!OTL: 124. Auf, auf, mein Herz, und du mein ganzer Sinn
!!!ONM: No. 124
!!!OCL: Erk
!!!SCA: BWV 268
!!!YOE: Riemenschneider, Albert
!!!OPR: 371 Harmonized Chorales and 69 Chorale Melodies with Figured Bass
!!!OPT: Bach Chorale Harmonizations
**kern	**kern	**kern	**kern	**harm	**root
!bass	!tenor	!alto	!sprno	!	!
*Iorgan	*Iorgan	*Iorgan	*Iorgan	*Iorgan	*Iorgan
*k[f#]	*k[f#]	*k[f#]	*k[f#]	*k[f#]	*k[f#]
*G:	*G:	*G:	*G:	*G:	*G:
*met(C)	*met(C)	*met(C)	*met(C)	*met(C)	*met(C)
*M4/4	*M4/4	*M4/4	*M4/4	*M4/4	*M4/4
*MM60	*MM60	*MM60	*MM60	*MM60	*MM60
8G	4d	4g	4b	I	4GG
8F#	.	.	.	.	.
=1	=1	=1	=1	=1	=1
4G	8d	8g	4b	I	8GG
.	8e	8e	.	vib	8EE
4D#	4f#	8b	4b	Vb/vi	4BB
.	.	8a	.	.	.
4E;	4e;	4g;	4b;	vi;	4EE;
4C	4e	8a	4ee	iib	4AA
.	.	8g	.	.	.
=2	=2	=2	=2	=2	=2
4.C	8A	8f#	4dd	V7d	4.DD
.	8G	8e	.	.	.
.	8A	8f#	4dd	.	.
8BB	8B	8g#	.	viib/ii	8GG#
8AA	8c	4a	4cc	ii	4AA
8GG#	8B	.	.	.	.
4AA	4A	8e	4cc	ii	4AA
.	.	8f#	.	.	.
=3	=3	=3	=3	=3	=3
4GGn;	4d;	4gn;	4b;	I;	4GG;
4G	4B	4d	4g	I	4GG
8F#	4A	8d	4a	Vb	4DD
8E	.	8e	.	.	.
4D	8d	8f#	4a	V	4DD
.	8c	8e	.	.	.
=4	=4	=4	=4	=4	=4
8G	8B	4d	4b	I	4GG
8F#	8A	.	.	.	.
4E	4G	8g	4cc	IVb	4CC
.	.	8e	.	.	.
4D	8A	8f#	8dd	V	8DD
.	8F#	8a	8cc	V7	8DD
8E	8G	[4g	4b	vi	8EE
8D	8B	.	.	Ic	8GG
=5	=5	=5	=5	=5	=5
8C	8e	8g]	4a	ii7b	8AA
8AA	8c	16f#	.	ii	8AA
.	.	16e	.	.	.
4D	8A	4f#	4a	V	4DD
.	16d	.	.	.	.
.	16c	.	.	.	.
4GG;	4B;	4d;	4g;	I;	4GG;
4G	4c#	4e	4a	V7d/V	4AA
=6	=6	=6	=6	=6	=6
!!linebreak: 2
8F#	8d	8f#	4a	Vb	8DD
8E	8c#	8g	.	V7c/V	8AA
8D	8d	8f#	4a	V	8DD
8C#	8e	8e	.	Vb/V	8AA
4D;	4d;	4f#;	4a;	V;	4DD;
4D#	4B	[4f#	8b	Vb/vi	4BB
.	.	.	8a	.	.
=7	=7	=7	=7	=7	=7
8E	4B	4f#]	4g	vi	4EE
8F#	.	.	.	.	.
8G	4B	[4e	4g	vib	4EE
8E	.	.	.	.	.
8C#	8A	8e]	4a	Vb	8DD
8D#	8F#	8f#	.	viio/vi	8DD#
8E	4G	8B	4g	vi	8EE
8Cn	.	[8e	.	IV	8CC
=8	=8	=8	=8	=8	=8
4AA	4c	8e]	2f#	viio7b	4FF#
.	.	8d#	.	.	.
4AA#	4c#	8e	.	V7b/V/vi	4FF#
.	.	8c#	.	.	.
4BB;	4B;	4d#;	4f#;	V/vi;	4BB;
4D#	8B	4B	4f#	Vb/vi	4BB
.	8An	.	.	.	.
=9	=9	=9	=9	=9	=9
8E	8G	4B	4g	vi	8EE
8Dn	8F#	.	.	V7c/IV	8GG
8C	8G	8e	4g	IV	8CC
8BB	8B	8d	.	Ib	8GG
8AA	[4c	8e	4a	ii	4AA
8GG	.	16f#	.	.	.
.	.	16g	.	.	.
8FF#	8c]	8a	4a	viio	8FF#
8DD	16d	8f#	.	V	8DD
.	16c	.	.	.	.
=10	=10	=10	=10	=10	=10
8GG	[4B	8d	4b	I	4GG
8G	.	16e	.	.	.
.	.	16f#	.	.	.
8E	8B]	8g	4cc	IV7b	8CC
8A	16A	16f#	.	viiob	8FF#
.	16G	16e	.	.	.
8F#	8A	8f#	8dd	Vb	8DD
8D	8f#	4a	8cc	V7	8DD
8G	8d	.	4b	I	8GG
8E	8e	8g	.	vi	8EE
=11	=11	=11	=11	=11	=11
8C	8e	4g	2a	ii7b	4AA
8AA	8c	.	.	.	.
4D	8A	4f#	.	V	4DD
.	16d	.	.	.	.
.	16c	.	.	.	.
4GG;	4B;	4d;	4g;	I;	4GG;
==	==	==	==	==	==
*-	*-	*-	*-	*-	*-
!!!CDT: 1685/3//-1750/7/28
!!!OCY: Deutschland
!!!AGN: chorale
!!!AST: Baroque
!!!AIN: vox
!!!YOY: 1941
!!!PPP: New York; London
!!!PPR: G. Schirmer
!!!ENC: David Huron
!!!EED: David Huron
!!!YEN: United States of America
!!!YER: 1992
!!!YEC: Copyright 1992 David Huron
!!!YEM: Rights to all derivative electronic formats reserved.
!!!YER: March 20, 1996
!!!AMT: simple quadruple
!!!EEV: 1.1
!!chor2scor: -l 2 -s 0.6 -o %b.pmx
